X: 8
T:The Lord Mayor's Jigg
M:6/4
L:1/4
S:Wright
K:G
b|e>feg>ag|f>geB2^c|d3F2G|A>BAB>cB|GEge2^d|e3E2||
e/f/|g>agB2c|d/c/d/e/dF2G|A3B3|GEcAFB|GEge2d|eBGE2||
